assets/images/main/slide_prev.svg

<svg width="10" height="18" viewBox="0 0 10 18" fill="none" xmlns="http://www.w3.org/2000/svg">
<path d="M2.11246 8.89579L9.24663 1.95961C9.43479 1.77668 9.52649 1.56129 9.52176 1.31344C9.51687 1.06544 9.42034 0.849972 9.23219 0.667039C9.04388 0.484106 8.82226 0.392638 8.56733 0.392638C8.31241 0.392638 8.09079 0.484107 7.90248 0.667039L0.637372 7.71647C0.466107 7.88298 0.339198 8.06952 0.256643 8.27609C0.174089 8.48265 0.132812 8.68922 0.132812 8.89579C0.132812 9.10235 0.174089 9.30892 0.256643 9.51549C0.339198 9.72205 0.466108 9.90859 0.637373 10.0751L7.90248 17.1388C8.09079 17.3217 8.31486 17.4108 8.57467 17.4061C8.83449 17.4013 9.05848 17.3075 9.24663 17.1245C9.43479 16.9416 9.52886 16.7261 9.52886 16.4781C9.52886 16.2303 9.43479 16.0149 9.24663 15.832L2.11246 8.89579Z" fill="#CDAF82" fill-opacity="0.3"/>
</svg>

<svg width="10" height="18" fill="none" xmlns="http://www.w3.org/2000/svg"><path d="M2.112 8.896 9.247 1.96a.848.848 0 0 0 .275-.647.899.899 0 0 0-.29-.646.923.923 0 0 0-.665-.274.923.923 0 0 0-.665.274L.637 7.717a1.659 1.659 0 0 0-.505 1.18 1.659 1.659 0 0 0 .505 1.178l7.265 7.064a.907.907 0 0 0 .673.267.957.957 0 0 0 .672-.281.872.872 0 0 0 .282-.647.872.872 0 0 0-.282-.646L2.112 8.896Z" fill="#CDAF82" fill-opacity=".3"/></svg>
